austria/municipalities/20414.svg

<svg xmlns="http://www.w3.org/2000/svg" width="850" height="850" style="shape-rendering:geometricPrecision;text-rendering:geometricPrecision;image-rendering:optimizeQuality;fill-rule:evenodd;clip-rule:evenodd"><path style="opacity:1" fill="#c8c7c7" d="M837.5 17.5v-6h-826v4c-.951-1.419-1.284-3.085-1-5h828c.302 2.56-.032 4.893-1 7z"/><path style="opacity:1" fill="#252222" d="M837.5 17.5a61428.695 61428.695 0 0 1-33.5 476C785.884 635.854 713.051 739.02 585.5 803c-101.823 45.101-204.489 47.101-308 6C169.696 761.862 97.529 682.362 61 570.5a436.225 436.225 0 0 1-15-70 46084.756 46084.756 0 0 1-34.5-485v-4h826v6z"/><path style="opacity:1" fill="#126237" d="M30.5 29.5c262.833-1 525.833-1.333 789-1 .295 2.235-.039 4.235-1 6v-5h-788z"/><path style="opacity:1" fill="#00a54f" d="M30.5 29.5h788v5a146505.76 146505.76 0 0 1-32.5 456c-3.551 34.09-11.551 67.09-24 99-28.568-41.906-62.735-78.739-102.5-110.5a1485.585 1485.585 0 0 0-53-38 3216.338 3216.338 0 0 0 80 9 230.388 230.388 0 0 0 35 1 373.803 373.803 0 0 0-47-50.5c22.35-13.517 40.184-31.517 53.5-54 19.968-31.675 26.802-66.009 20.5-103-.427-27.153 7.24-51.653 23-73.5-27.913 1.368-53.913-4.965-78-19a475.811 475.811 0 0 0-31-20c-39.612-15.476-79.612-16.476-120-3a126.289 126.289 0 0 0-19 9.5 4741.134 4741.134 0 0 1-12.5-44 157.697 157.697 0 0 0-9-22c-32.658 60.643-57.491 124.31-74.5 191-16.8-68.905-41.967-134.571-75.5-197a338.46 338.46 0 0 0-21 67c-11.812-7.498-24.645-12.664-38.5-15.5-34.602-8.224-68.269-5.557-101 8a221.668 221.668 0 0 0-29 19c-24.522 14.964-51.189 21.798-80 20.5 15.852 22.387 23.518 47.387 23 75-5.89 35.772.611 69.105 19.5 100 10.5 16.489 23 31.322 37.5 44.5a110.999 110.999 0 0 0 17 10.5c-17.14 15.134-32.473 31.801-46 50-.543.06-.876.393-1 1 2.809 1.3 5.476 1.3 8 0 66.247-2.902 131.247-13.069 195-30.5-37.27 34.473-70.436 72.306-99.5 113.5a3956.839 3956.839 0 0 0-33.5 49.5c22.948-1.826 45.281-6.66 67-14.5 3.366 48.897 23.366 89.397 60 121.5a765.945 765.945 0 0 0 46 25c20.119 13.788 35.619 31.621 46.5 53.5 11.952-25.286 30.119-44.786 54.5-58.5 24.149-8.644 44.315-22.811 60.5-42.5 22.583-29.074 34.917-62.074 37-99a489.745 489.745 0 0 0 46.5 12.5 62.928 62.928 0 0 0 21 2c-33.286-51.727-70.62-99.894-112-144.5a826.715 826.715 0 0 1 116 81.5c37.141 37.127 67.808 78.961 92 125.5-51.268 85.727-125.268 141.893-222 168.5-123.73 28.481-234.063 2.148-331-79C112.475 664.117 71.642 582.283 62 484.5a364664.527 364664.527 0 0 0-31.5-455z"/><path style="opacity:1" fill="#fcb713" d="M352.5 93.5c27.156 51.592 47.989 105.925 62.5 163 6.792 27.088 8.125 54.422 4 82-3.251 13.665-10.417 24.832-21.5 33.5-20.737 14.7-43.404 25.7-68 33-56.314 15.54-113.647 24.873-172 28 13.667-15 28-29.333 43-43a243.727 243.727 0 0 1-23-9c-34.201-25.881-55.034-60.048-62.5-102.5a809.253 809.253 0 0 0 1-53c-1.593-12.69-4.26-25.023-8-37L229.5 254a30.465 30.465 0 0 0 9 1.5c-.57-4.412-2.903-7.578-7-9.5l-114-72c27.6-7.301 52.6-19.634 75-37 24.413-11.413 50.08-15.413 77-12 18.301 1.155 35.634 5.822 52 14l15 13.5a1505.217 1505.217 0 0 0 16-59zM695.5 437.5c-2.107.968-4.441 1.302-7 1-57.852-3.253-114.519-13.086-170-29.5a248.345 248.345 0 0 1-54-25c-23.963-15.995-34.629-38.495-32-67.5.725-30.123 5.892-59.457 15.5-88a905.313 905.313 0 0 1 52.5-129 1297.1 1297.1 0 0 1 16.5 59 203.945 203.945 0 0 1 18.5-15.5c37.727-15.936 76.06-17.602 115-5a166.03 166.03 0 0 1 33 20c16.44 10.146 34.107 17.146 53 21l-110 68c-4.416 2.412-8.249 5.578-11.5 9.5a4.934 4.934 0 0 0-.5 3c4.938-.034 9.604-1.201 14-3.5a12154.873 12154.873 0 0 1 116-61.5c-.548 5.217-1.714 10.551-3.5 16a286.763 286.763 0 0 0-3 21c9.709 64.908-11.458 117.074-63.5 156.5a131.652 131.652 0 0 0-21 8 822.056 822.056 0 0 1 42 41.5zM414.5 381.5c12.958-.508 25.291 1.992 37 7.5 18.648 9.324 35.648 20.99 51 35 43.46 42.199 81.793 88.366 115 138.5l-2 1a583.157 583.157 0 0 1-56-16l-1 1.5c4.548 13.025 5.048 26.191 1.5 39.5-7.791 33.094-23.957 61.261-48.5 84.5-11.733 8.537-24.4 15.537-38 21-15.94 9.104-29.94 20.604-42 34.5a15509.417 15509.417 0 0 1-4.5-134l-2-10a7.248 7.248 0 0 0-2.5-2 26.852 26.852 0 0 0-3.5 6 28032.44 28032.44 0 0 0-6 139 247.757 247.757 0 0 0-28.5-24.5 536.442 536.442 0 0 0-47-26c-32.588-27.837-51.255-63.17-56-106a111.784 111.784 0 0 1 4-23.5 1809.035 1809.035 0 0 1-57.5 16l-1.5-1c30.352-45.539 64.685-88.039 103-127.5a294.354 294.354 0 0 1 51-40c10.876-6.007 22.209-10.507 34-13.5z"/><path style="opacity:1" fill="#f8b413" d="M480.5 399.5a742.495 742.495 0 0 1 105 40.5c67.729 40.725 124.229 93.559 169.5 158.5 1.301 1.865 1.635 3.865 1 6a201.52 201.52 0 0 1-12 24c-21.158-38.655-46.491-74.321-76-107-18.745-19.425-39.245-36.591-61.5-51.5a1026.512 1026.512 0 0 0-63-40 2347.788 2347.788 0 0 0-59-27c-2.044-.498-3.378-1.665-4-3.5z"/><path style="opacity:1" fill="#8a671b" d="M695.5 437.5c.543.06.876.393 1 1-2.809 1.3-5.476 1.3-8 0 2.559.302 4.893-.032 7-1z"/><path style="opacity:1" fill="#165b35" d="M133.5 444.5c2.107.968 4.441 1.302 7 1-2.524 1.3-5.191 1.3-8 0 .124-.607.457-.94 1-1z"/></svg>

<?xml version="1.0" encoding="UTF-8"?>
<!DOCTYPE svg PUBLIC "-//W3C//DTD SVG 1.1//EN" "http://www.w3.org/Graphics/SVG/1.1/DTD/svg11.dtd">
<svg xmlns="http://www.w3.org/2000/svg" version="1.1" width="850px" height="850px" style="shape-rendering:geometricPrecision; text-rendering:geometricPrecision; image-rendering:optimizeQuality; fill-rule:evenodd; clip-rule:evenodd" xmlns:xlink="http://www.w3.org/1999/xlink">
<g><path style="opacity:1" fill="#c8c7c7" d="M 837.5,17.5 C 837.5,15.5 837.5,13.5 837.5,11.5C 562.167,11.5 286.833,11.5 11.5,11.5C 11.5,12.8333 11.5,14.1667 11.5,15.5C 10.5489,14.0813 10.2155,12.4147 10.5,10.5C 286.5,10.5 562.5,10.5 838.5,10.5C 838.802,13.0593 838.468,15.3926 837.5,17.5 Z"/></g>
<g><path style="opacity:1" fill="#252222" d="M 837.5,17.5 C 826.95,176.207 815.783,334.873 804,493.5C 785.884,635.854 713.051,739.02 585.5,803C 483.677,848.101 381.011,850.101 277.5,809C 169.696,761.862 97.5288,682.362 61,570.5C 54.0829,547.581 49.0829,524.248 46,500.5C 33.6471,338.893 22.1471,177.227 11.5,15.5C 11.5,14.1667 11.5,12.8333 11.5,11.5C 286.833,11.5 562.167,11.5 837.5,11.5C 837.5,13.5 837.5,15.5 837.5,17.5 Z"/></g>
<g><path style="opacity:1" fill="#126237" d="M 30.5,29.5 C 293.333,28.5002 556.333,28.1669 819.5,28.5C 819.795,30.7354 819.461,32.7354 818.5,34.5C 818.5,32.8333 818.5,31.1667 818.5,29.5C 555.833,29.5 293.167,29.5 30.5,29.5 Z"/></g>
<g><path style="opacity:1" fill="#00a54f" d="M 30.5,29.5 C 293.167,29.5 555.833,29.5 818.5,29.5C 818.5,31.1667 818.5,32.8333 818.5,34.5C 807.904,186.512 797.071,338.512 786,490.5C 782.449,524.59 774.449,557.59 762,589.5C 733.432,547.594 699.265,510.761 659.5,479C 642.112,465.946 624.445,453.279 606.5,441C 633.069,444.327 659.736,447.327 686.5,450C 698.147,451.221 709.814,451.555 721.5,451C 707.429,432.76 691.763,415.927 674.5,400.5C 696.85,386.983 714.684,368.983 728,346.5C 747.968,314.825 754.802,280.491 748.5,243.5C 748.073,216.347 755.74,191.847 771.5,170C 743.587,171.368 717.587,165.035 693.5,151C 683.436,143.939 673.102,137.273 662.5,131C 622.888,115.524 582.888,114.524 542.5,128C 535.888,130.639 529.554,133.806 523.5,137.5C 519.276,122.902 515.11,108.235 511,93.5C 508.553,85.9391 505.553,78.6058 502,71.5C 469.342,132.143 444.509,195.81 427.5,262.5C 410.7,193.595 385.533,127.929 352,65.5C 342.689,87.0676 335.689,109.401 331,132.5C 319.188,125.002 306.355,119.836 292.5,117C 257.898,108.776 224.231,111.443 191.5,125C 181.32,130.587 171.654,136.921 162.5,144C 137.978,158.964 111.311,165.798 82.5,164.5C 98.3518,186.887 106.018,211.887 105.5,239.5C 99.6107,275.272 106.111,308.605 125,339.5C 135.5,355.989 148,370.822 162.5,384C 167.841,388.005 173.508,391.505 179.5,394.5C 162.36,409.634 147.027,426.301 133.5,444.5C 132.957,444.56 132.624,444.893 132.5,445.5C 135.309,446.8 137.976,446.8 140.5,445.5C 206.747,442.598 271.747,432.431 335.5,415C 298.23,449.473 265.064,487.306 236,528.5C 224.71,544.914 213.543,561.414 202.5,578C 225.448,576.174 247.781,571.34 269.5,563.5C 272.866,612.397 292.866,652.897 329.5,685C 344.545,693.856 359.879,702.189 375.5,710C 395.619,723.788 411.119,741.621 422,763.5C 433.952,738.214 452.119,718.714 476.5,705C 500.649,696.356 520.815,682.189 537,662.5C 559.583,633.426 571.917,600.426 574,563.5C 589.273,568.423 604.773,572.59 620.5,576C 627.407,577.85 634.407,578.517 641.5,578C 608.214,526.273 570.88,478.106 529.5,433.5C 570.52,457.359 609.187,484.526 645.5,515C 682.641,552.127 713.308,593.961 737.5,640.5C 686.232,726.227 612.232,782.393 515.5,809C 391.77,837.481 281.437,811.148 184.5,730C 112.475,664.117 71.6418,582.283 62,484.5C 51.5962,332.846 41.0962,181.18 30.5,29.5 Z"/></g>
<g><path style="opacity:1" fill="#fcb713" d="M 352.5,93.5 C 379.656,145.092 400.489,199.425 415,256.5C 421.792,283.588 423.125,310.922 419,338.5C 415.749,352.165 408.583,363.332 397.5,372C 376.763,386.7 354.096,397.7 329.5,405C 273.186,420.54 215.853,429.873 157.5,433C 171.167,418 185.5,403.667 200.5,390C 192.72,387.404 185.054,384.404 177.5,381C 143.299,355.119 122.466,320.952 115,278.5C 115.912,260.859 116.245,243.192 116,225.5C 114.407,212.81 111.74,200.477 108,188.5C 148.5,210.333 189,232.167 229.5,254C 232.432,254.953 235.432,255.453 238.5,255.5C 237.93,251.088 235.597,247.922 231.5,246C 193.5,222 155.5,198 117.5,174C 145.1,166.699 170.1,154.366 192.5,137C 216.913,125.587 242.58,121.587 269.5,125C 287.801,126.155 305.134,130.822 321.5,139C 326.5,143.5 331.5,148 336.5,152.5C 342.214,133.011 347.547,113.345 352.5,93.5 Z"/></g>
<g><path style="opacity:1" fill="#fcb713" d="M 695.5,437.5 C 693.393,438.468 691.059,438.802 688.5,438.5C 630.648,435.247 573.981,425.414 518.5,409C 499.479,402.822 481.479,394.489 464.5,384C 440.537,368.005 429.871,345.505 432.5,316.5C 433.225,286.377 438.392,257.043 448,228.5C 462.218,184.077 479.718,141.077 500.5,99.5C 506.48,119.092 511.98,138.759 517,158.5C 522.874,152.957 529.041,147.79 535.5,143C 573.227,127.064 611.56,125.398 650.5,138C 662.299,143.397 673.299,150.064 683.5,158C 699.94,168.146 717.607,175.146 736.5,179C 699.833,201.667 663.167,224.333 626.5,247C 622.084,249.412 618.251,252.578 615,256.5C 614.517,257.448 614.351,258.448 614.5,259.5C 619.438,259.466 624.104,258.299 628.5,256C 667.041,235.299 705.708,214.799 744.5,194.5C 743.952,199.717 742.786,205.051 741,210.5C 739.741,217.463 738.741,224.463 738,231.5C 747.709,296.408 726.542,348.574 674.5,388C 667.188,390.1 660.188,392.767 653.5,396C 668.006,409.339 682.006,423.173 695.5,437.5 Z"/></g>
<g><path style="opacity:1" fill="#fcb713" d="M 414.5,381.5 C 427.458,380.992 439.791,383.492 451.5,389C 470.148,398.324 487.148,409.99 502.5,424C 545.96,466.199 584.293,512.366 617.5,562.5C 616.833,562.833 616.167,563.167 615.5,563.5C 596.575,559.102 577.908,553.768 559.5,547.5C 559.167,548 558.833,548.5 558.5,549C 563.048,562.025 563.548,575.191 560,588.5C 552.209,621.594 536.043,649.761 511.5,673C 499.767,681.537 487.1,688.537 473.5,694C 457.56,703.104 443.56,714.604 431.5,728.5C 429.807,683.842 428.307,639.175 427,594.5C 426.333,591.167 425.667,587.833 425,584.5C 424.311,583.643 423.478,582.977 422.5,582.5C 421.081,584.336 419.914,586.336 419,588.5C 416.885,634.829 414.885,681.162 413,727.5C 404.089,718.585 394.589,710.418 384.5,703C 369.284,693.558 353.618,684.891 337.5,677C 304.912,649.163 286.245,613.83 281.5,571C 281.998,563.012 283.331,555.178 285.5,547.5C 266.424,553.149 247.257,558.482 228,563.5C 227.5,563.167 227,562.833 226.5,562.5C 256.852,516.961 291.185,474.461 329.5,435C 345.066,419.759 362.066,406.426 380.5,395C 391.376,388.993 402.709,384.493 414.5,381.5 Z"/></g>
<g><path style="opacity:1" fill="#f8b413" d="M 480.5,399.5 C 516.502,410.335 551.502,423.835 585.5,440C 653.229,480.725 709.729,533.559 755,598.5C 756.301,600.365 756.635,602.365 756,604.5C 752.527,612.779 748.527,620.779 744,628.5C 722.842,589.845 697.509,554.179 668,521.5C 649.255,502.075 628.755,484.909 606.5,470C 586.007,455.917 565.007,442.584 543.5,430C 523.953,420.726 504.286,411.726 484.5,403C 482.456,402.502 481.122,401.335 480.5,399.5 Z"/></g>
<g><path style="opacity:1" fill="#8a671b" d="M 695.5,437.5 C 696.043,437.56 696.376,437.893 696.5,438.5C 693.691,439.8 691.024,439.8 688.5,438.5C 691.059,438.802 693.393,438.468 695.5,437.5 Z"/></g>
<g><path style="opacity:1" fill="#165b35" d="M 133.5,444.5 C 135.607,445.468 137.941,445.802 140.5,445.5C 137.976,446.8 135.309,446.8 132.5,445.5C 132.624,444.893 132.957,444.56 133.5,444.5 Z"/></g>
</svg>
